src/assets/svg/cardb.svg

<svg width="77" height="82" viewBox="0 0 77 82" fill="none" xmlns="http://www.w3.org/2000/svg">
<path d="M20.9062 40.3639C31.9519 40.3639 40.9062 31.4096 40.9062 20.3639C40.9062 9.31819 31.9519 0.363861 20.9062 0.363861C9.86055 0.363861 0.90625 9.31819 0.90625 20.3639C0.90625 31.4096 9.86055 40.3639 20.9062 40.3639Z" fill="#A6D514"/>
<path d="M62.0908 81.8896C69.8042 81.8896 76.0571 75.6367 76.0571 67.9233C76.0571 60.21 69.8042 53.957 62.0908 53.957C54.3774 53.957 48.1245 60.21 48.1245 67.9233C48.1245 75.6367 54.3774 81.8896 62.0908 81.8896Z" fill="#A6D514"/>
</svg>

<svg width="77" height="82" fill="none" xmlns="http://www.w3.org/2000/svg"><path d="M20.906 40.364c11.046 0 20-8.954 20-20s-8.954-20-20-20c-11.045 0-20 8.954-20 20s8.955 20 20 20zM62.09 81.89c7.714 0 13.967-6.253 13.967-13.967 0-7.713-6.253-13.966-13.966-13.966-7.714 0-13.967 6.253-13.967 13.966 0 7.714 6.253 13.967 13.967 13.967z" fill="#A6D514"/></svg>
